images/icon_3.svg

<svg enable-background="new 0 0 59.986 59.986" height="512" viewBox="0 0 59.986 59.986" width="512" xmlns="http://www.w3.org/2000/svg"><path d="m59.972 20.164c.007-.041.011-.081.013-.123.002-.049.001-.096-.003-.145-.004-.042-.01-.082-.02-.123-.011-.048-.026-.094-.044-.14-.009-.024-.011-.049-.022-.072-.008-.017-.022-.03-.031-.047s-.013-.035-.023-.052l-10-16c-.046-.073-.1-.139-.161-.197-.001-.001-.002-.001-.003-.002-.086-.081-.188-.139-.297-.185-.014-.006-.023-.018-.038-.024-.011-.004-.023-.002-.034-.005-.101-.034-.205-.057-.314-.057h-38c-.108 0-.211.023-.31.056-.011.003-.022.001-.032.005-.015.005-.024.017-.038.023-.104.043-.202.099-.287.175-.005.005-.012.008-.017.012-.062.058-.117.125-.163.198l-10 16c-.01.016-.014.035-.023.052s-.023.03-.031.047c-.011.023-.013.048-.023.072-.018.046-.033.092-.044.14-.009.041-.016.082-.02.124-.007.049-.008.097-.006.145.002.042.006.082.013.123.008.048.021.095.037.142.013.039.027.077.045.115.009.018.012.038.022.056.016.029.04.051.058.078.014.021.022.044.039.064l28.989 35.986c.002.003.004.005.006.007l.005.007c.003.004.008.005.011.009.082.099.184.174.295.234.03.016.058.03.089.043.121.051.249.087.383.087.114 0 .229-.02.343-.061.017-.006.028-.02.045-.027.051-.021.091-.055.137-.084.076-.048.147-.098.206-.163.014-.015.035-.022.048-.038l29-36c.016-.02.024-.044.039-.064.019-.027.042-.049.058-.078.01-.018.013-.038.022-.056.018-.038.032-.075.045-.115.014-.047.028-.093.036-.142zm-27.877-15.171h15.459l-4.86 13.045zm8.797 14h-21.797l10.898-13.413zm-23.67-.868-4.799-13.132h15.469zm24.371 2.868-11.775 31.606-11.549-31.606zm7.628-14.747 7.967 12.748h-12.716zm-38.465.013 4.653 12.734h-12.611zm5.384 14.734 10.839 29.664-23.896-29.664zm16.25 30.43 11.337-30.43h13.176z" fill="#c87137"/></svg>

<?xml version="1.0" encoding="UTF-8" standalone="no"?>
<svg
   xmlns:dc="http://purl.org/dc/elements/1.1/"
   xmlns:cc="http://creativecommons.org/ns#"
   xmlns:rdf="http://www.w3.org/1999/02/22-rdf-syntax-ns#"
   xmlns:svg="http://www.w3.org/2000/svg"
   xmlns="http://www.w3.org/2000/svg"
   xmlns:sodipodi="http://sodipodi.sourceforge.net/DTD/sodipodi-0.dtd"
   xmlns:inkscape="http://www.inkscape.org/namespaces/inkscape"
   version="1.1"
   id="Capa_1"
   x="0px"
   y="0px"
   viewBox="0 0 59.986 59.986"
   style="enable-background:new 0 0 59.986 59.986;"
   xml:space="preserve"
   width="512px"
   height="512px"
   sodipodi:docname="icon_3.svg"
   inkscape:version="1.0rc1 (09960d6, 2020-04-09)"><metadata
   id="metadata359"><rdf:RDF><cc:Work
       rdf:about=""><dc:format>image/svg+xml</dc:format><dc:type
         rdf:resource="http://purl.org/dc/dcmitype/StillImage" /></cc:Work></rdf:RDF></metadata><defs
   id="defs357" /><sodipodi:namedview
   inkscape:document-rotation="0"
   pagecolor="#ffffff"
   bordercolor="#666666"
   borderopacity="1"
   objecttolerance="10"
   gridtolerance="10"
   guidetolerance="10"
   inkscape:pageopacity="0"
   inkscape:pageshadow="2"
   inkscape:window-width="1220"
   inkscape:window-height="480"
   id="namedview355"
   showgrid="false"
   inkscape:zoom="0.53125"
   inkscape:cx="-106.35294"
   inkscape:cy="256"
   inkscape:window-x="0"
   inkscape:window-y="23"
   inkscape:window-maximized="0"
   inkscape:current-layer="Capa_1" />
<path
   d="M59.972,20.164c0.007-0.041,0.011-0.081,0.013-0.123c0.002-0.049,0.001-0.096-0.003-0.145  c-0.004-0.042-0.01-0.082-0.02-0.123c-0.011-0.048-0.026-0.094-0.044-0.14c-0.009-0.024-0.011-0.049-0.022-0.072  c-0.008-0.017-0.022-0.03-0.031-0.047c-0.009-0.017-0.013-0.035-0.023-0.052l-10-16c-0.046-0.073-0.1-0.139-0.161-0.197  c-0.001-0.001-0.002-0.001-0.003-0.002c-0.086-0.081-0.188-0.139-0.297-0.185c-0.014-0.006-0.023-0.018-0.038-0.024  c-0.011-0.004-0.023-0.002-0.034-0.005c-0.101-0.034-0.205-0.057-0.314-0.057h-38c-0.108,0-0.211,0.023-0.31,0.056  c-0.011,0.003-0.022,0.001-0.032,0.005c-0.015,0.005-0.024,0.017-0.038,0.023c-0.104,0.043-0.202,0.099-0.287,0.175  c-0.005,0.005-0.012,0.008-0.017,0.012c-0.062,0.058-0.117,0.125-0.163,0.198l-10,16c-0.01,0.016-0.014,0.035-0.023,0.052  c-0.009,0.017-0.023,0.03-0.031,0.047c-0.011,0.023-0.013,0.048-0.023,0.072c-0.018,0.046-0.033,0.092-0.044,0.14  c-0.009,0.041-0.016,0.082-0.02,0.124C0,19.945-0.001,19.993,0.001,20.041c0.002,0.042,0.006,0.082,0.013,0.123  c0.008,0.048,0.021,0.095,0.037,0.142c0.013,0.039,0.027,0.077,0.045,0.115c0.009,0.018,0.012,0.038,0.022,0.056  c0.016,0.029,0.04,0.051,0.058,0.078c0.014,0.021,0.022,0.044,0.039,0.064l28.989,35.986c0.002,0.003,0.004,0.005,0.006,0.007  l0.005,0.007c0.003,0.004,0.008,0.005,0.011,0.009c0.082,0.099,0.184,0.174,0.295,0.234c0.03,0.016,0.058,0.03,0.089,0.043  c0.121,0.051,0.249,0.087,0.383,0.087c0.114,0,0.229-0.02,0.343-0.061c0.017-0.006,0.028-0.02,0.045-0.027  c0.051-0.021,0.091-0.055,0.137-0.084c0.076-0.048,0.147-0.098,0.206-0.163c0.014-0.015,0.035-0.022,0.048-0.038l29-36  c0.016-0.02,0.024-0.044,0.039-0.064c0.019-0.027,0.042-0.049,0.058-0.078c0.01-0.018,0.013-0.038,0.022-0.056  c0.018-0.038,0.032-0.075,0.045-0.115C59.95,20.259,59.964,20.213,59.972,20.164z M32.095,4.993h15.459l-4.86,13.045L32.095,4.993z   M40.892,18.993H19.095L29.993,5.58L40.892,18.993z M17.222,18.125L12.423,4.993h15.469L17.222,18.125z M41.593,20.993  L29.818,52.599L18.269,20.993H41.593z M49.221,6.246l7.967,12.748H44.472L49.221,6.246z M10.756,6.259l4.653,12.734H2.798  L10.756,6.259z M16.14,20.993l10.839,29.664L3.083,20.993H16.14z M32.39,51.423l11.337-30.43h13.176L32.39,51.423z"
   fill="#de4f32"
   id="path322"
   style="fill:#c87137;fill-opacity:1" />
<g
   id="g324">
</g>
<g
   id="g326">
</g>
<g
   id="g328">
</g>
<g
   id="g330">
</g>
<g
   id="g332">
</g>
<g
   id="g334">
</g>
<g
   id="g336">
</g>
<g
   id="g338">
</g>
<g
   id="g340">
</g>
<g
   id="g342">
</g>
<g
   id="g344">
</g>
<g
   id="g346">
</g>
<g
   id="g348">
</g>
<g
   id="g350">
</g>
<g
   id="g352">
</g>
</svg>
